X: 22397
T: Lad O'Beirne's Favourite
R: reel
M: 4/4
K: Dmajor
dF F2 AFEF|dFBF A2 (3ABc|dF F2 AFEF|DBBA B3 c|
dF F2 AFEF|dFBF A2 (3ABc|dBcA BAFE|DBBA B3 c||
d2 fd edef|d2 fd fa a2|d2 fd edcA|BdcA BABc|
d2 fd edef|d2 fd fa a2|bfaf gfed|BdcA B3 c||

